X: 19101
T: Irish Lamentation
R: waltz
M: 3/4
K: Gmajor
G2A2|B4 dB3 AG3|A4 G4 G2 A2|B4 dB3 AG3|A4 A4 G3A|
BG3 cA3 BG3|E3D E4 G3A|B4 G4 G2 A2|G4 G4 G2 A2||
B4 B4 B2 c2|B4 B4 AB3|a4 A4 A2B2|A4 A4 G2 A2|
BG3 cA3 BG3|E3D E4 G3A|B4 G4 G2 A2|G4 G4 G2 A2||
B4 d4 d2 e2|d2 c2 B2 A2 G2|G4 g4 a2 b2|g4 g4 G2 A2|
B4 d4 d2 e2|d4 c2 B2 A2 G2|G4 g4 g2 a2|g4 g4 d2 e2|
=fe3 =f2 g2 a=f3|e2 d2 e2 =f2 ge3|d2 e2 g2 B2 A2 G2|A4 A4 G2 A2|
BG3 cA3 BG3|E3D E4 G2A2|B4 G4 G3A|G4 G4||

